packages/components/icon/src/assets/icons/file-attach.svg

<svg width="24" height="24" viewBox="0 0 24 24" fill="none" xmlns="http://www.w3.org/2000/svg">
<path fill-rule="evenodd" clip-rule="evenodd" d="M8.48864 4C9.22624 4 9.92768 4.1374 10.593 4.41219C11.2583 4.68698 11.8512 5.08471 12.3719 5.60537L19.4659 12.6994C19.8564 13.0754 20.1493 13.5129 20.3445 14.0119C20.5398 14.5108 20.6374 15.0279 20.6374 15.563C20.6374 16.0981 20.5398 16.6116 20.3445 17.1033C20.1493 17.595 19.8564 18.0362 19.4659 18.4267C19.0754 18.8172 18.6343 19.1136 18.1426 19.3161C17.6508 19.5186 17.1374 19.6198 16.6023 19.6198C16.0527 19.6054 15.532 19.4969 15.0403 19.2944C14.5486 19.0919 14.1147 18.7955 13.7386 18.405L7.66426 12.3306C7.15806 11.7955 6.90496 11.1808 6.90496 10.4866C6.90496 10.1395 6.97004 9.80682 7.10021 9.48864C7.23037 9.17045 7.41839 8.88843 7.66426 8.64256C8.17046 8.13636 8.78512 7.88326 9.50826 7.88326C10.2459 7.88326 10.8605 8.13636 11.3523 8.64256L14.563 11.8533C14.7076 11.9835 14.78 12.1498 14.78 12.3523C14.78 12.5548 14.7076 12.7283 14.563 12.8729C14.4329 13.0031 14.2665 13.0682 14.064 13.0682C13.8616 13.0682 13.688 13.0031 13.5434 12.8729L10.3543 9.66219C10.1229 9.43078 9.84091 9.31508 9.50826 9.31508C9.19008 9.31508 8.91529 9.43078 8.68388 9.66219C8.45248 9.87913 8.33678 10.1539 8.33678 10.4866C8.33678 10.8192 8.45248 11.1012 8.68388 11.3326L14.7583 17.407C15.25 17.8988 15.8647 18.1591 16.6023 18.188C17.2965 18.188 17.9112 17.9349 18.4463 17.4287C18.9525 16.9225 19.2056 16.3006 19.2056 15.563C19.2056 14.8254 18.9525 14.2035 18.4463 13.6973L11.3523 6.625C10.9762 6.2345 10.5387 5.93802 10.0398 5.73554C9.5408 5.53306 9.02376 5.43182 8.48864 5.43182C7.95351 5.43182 7.44008 5.53306 6.94835 5.73554C6.45661 5.93802 6.0155 6.2345 5.625 6.625C5.2345 7.0155 4.93802 7.46022 4.73554 7.95919C4.53306 8.45816 4.43182 8.96797 4.43182 9.48864C4.43182 10.0093 4.53306 10.5155 4.73554 11.0072C4.93802 11.499 5.2345 11.9473 5.625 12.3523L11.5258 18.2531C11.6705 18.3977 11.7428 18.5713 11.7428 18.7738C11.7428 18.9762 11.6705 19.1426 11.5258 19.2727C11.3957 19.4174 11.2293 19.4897 11.0269 19.4897C10.8244 19.4897 10.6508 19.4174 10.5062 19.2727L4.60537 13.3719C4.08471 12.8512 3.68698 12.2583 3.41219 11.593C3.1374 10.9277 3 10.2262 3 9.48864C3 8.75103 3.1374 8.04959 3.41219 7.3843C3.68698 6.71901 4.08471 6.12604 4.60537 5.60537C5.12604 5.08471 5.71901 4.68698 6.3843 4.41219C7.04959 4.1374 7.75103 4 8.48864 4Z" fill="currentColor"/>
</svg>

<svg viewBox="0 0 24 24" fill="none" xmlns="http://www.w3.org/2000/svg"><path fill-rule="evenodd" clip-rule="evenodd" d="M8.489 4a5.424 5.424 0 0 1 3.883 1.605l7.094 7.094c.39.376.683.814.878 1.313a4.219 4.219 0 0 1 0 3.091 3.887 3.887 0 0 1-.878 1.324 4.007 4.007 0 0 1-2.864 1.193 4.367 4.367 0 0 1-1.562-.326 3.8 3.8 0 0 1-1.301-.889l-6.075-6.074c-.506-.535-.759-1.15-.759-1.844 0-.348.065-.68.195-.998.13-.319.318-.6.564-.846a2.51 2.51 0 0 1 1.844-.76c.738 0 1.353.253 1.844.76l3.211 3.21c.145.13.217.297.217.5a.71.71 0 0 1-.217.52.676.676 0 0 1-.499.195.751.751 0 0 1-.52-.195l-3.19-3.21a1.151 1.151 0 0 0-.846-.348c-.318 0-.593.116-.824.347a1.081 1.081 0 0 0-.347.825c0 .332.115.614.347.846l6.074 6.074c.492.492 1.107.752 1.844.781.695 0 1.31-.253 1.844-.76.506-.506.76-1.127.76-1.865s-.253-1.36-.76-1.866l-7.094-7.072a3.774 3.774 0 0 0-1.312-.89 4.088 4.088 0 0 0-3.092 0 4.027 4.027 0 0 0-1.323.89c-.39.39-.687.835-.89 1.334a4.034 4.034 0 0 0-.303 1.53c0 .52.101 1.026.304 1.518.202.492.498.94.889 1.345l5.9 5.901a.71.71 0 0 1 .218.52.641.641 0 0 1-.217.5.641.641 0 0 1-.5.217.71.71 0 0 1-.52-.217l-5.9-5.901A5.424 5.424 0 0 1 3 9.489a5.424 5.424 0 0 1 1.605-3.883A5.424 5.424 0 0 1 8.49 4Z" fill="currentColor"/></svg>
